!!!SOCIAL_FUNCTION: hunting songs
!!!SOCIAL_FUNCTION2: dance
!!!PDT:	1943
!!!LING_GROUP: Muskogean
!!!LANG: Non-Tone
Specific Region: Oklahoma, California, Mississippi, Louisiana, Texas, Alabama
!!!REG: Southeast
!!!COM: Anon.
!!!OTL: Turkey Dance Song
!!!ODT: <1933//
!!!MPN: Lapintabeseihoke [Kills it Himself, Sidney Wesley]
!!!MLC: Philadelphia, Mississippi, United States of America
!! Song was recorded in January 1933.
!!!AGN: monody
!!!SOCIAL_FUNCTION: dance
!!!AMT: simple duple
!!!RWG: Transcribed pitches, durations, and meters are only approximate.
**kern	**recip
*ICvox	*ICidio
*Imale	*Isticks
*clefF4	*
*k[f#c#g#d#a#]	*
*M2/4	*M2/4
*MM72	*MM72
=1-	=1-
4B	4
8d#	4
8B	.
=2	=2
16B	4
8.G#	.
8G#	4
8r	.
=3	=3
4B	4
8d#	4
8B	.
=4	=4
16B	4
8.G#	.
4G#	4
=5	=5
16c#	4
8.c#	.
8B	4
8B	.
=6	=6
8F#	4
8B	.
8F#	4
8G#	.
=7	=7
16G#	4
8.F#	.
8F#	4
8r	.
=8	=8
16B	4
8.B	.
8F#	4
8F#	.
=9	=9
8D#	4
8F#	.
8F#	4
8G#	.
=10	=10
16G#	4
8.F#	.
8F#	4
8r	.
=11	=11
4B	4
8d#	4
8B	.
=12	=12
16B	4
8.G#	.
8G#	4
8r	.
=13	=13
4B	4
8d#	4
8B	.
=14	=14
16B	4
8.G#	.
4G#	4
=15	=15
16c#	4
8.c#	.
8B	4
8B	.
=16	=16
8F#	4
8B	.
8F#	4
8G#	.
=17	=17
16G#	4
8.F#	.
8F#	4
8r	.
=18	=18
8d#	4
8f#	.
8f#	4
16d#	.
16c#	.
=19	=19
4d#	4
16d#	4
8.c#	.
=20	=20
4d#	4
8d#	4
8r	.
=21	=21
8d#	4
8f#	.
8f#	4
16d#	.
16c#	.
=22	=22
8c#	4
8B	.
8F#	4
8G#	.
=23	=23
16G#	4
8.F#	.
8F#	4
8r	.
=24	=24
4B	4
8d#	4
8B	.
=25	=25
16B	4
8.G#	.
8G#	4
8r	.
=26	=26
4B	4
8d#	4
8B	.
=27	=27
16B	4
8.G#	.
4G#	4
=28	=28
!!	changed to sixteenth from eight:
16c#	4
8.c#	.
8B	4
8B	.
=29	=29
8F#	4
8B	.
8F#	4
8G#	.
=30	=30
16G#	4
8.F#	.
8F#	4
8r	.
=31	=31
16B	4
8.B	.
8F#	4
8F#	.
=32	=32
8D#	4
8F#	.
8F#	4
8G#	.
=33	=33
16G#	4
8.F#	.
8F#	4
8r	.
==	==
*-	*-
!!!CNT: Choctaw
!!!TXO: Choctaw
!!!OCY: United States
!!!OCL: Frances Densmore
!!!YOR: Frances Densmore, "Choctaw Music"
!!!YOR: Bulletin 136, page 174, No. 60
!!!PPR: Smithsonian Institution, Bureau of American Ethnology
!!!PPR: Government Printing Office
!!!PDT: 1943
!!!PPP: Washington, DC, United States of America
!!!YEC: Electronic Copyright 2000 David Huron
!!!YER: August 2000
!!!YEN: United States of America
!!!ENC: David Huron
!!!RDT: August 30, 2000
!!!EEV: Release 1.0
!!!AIN: sticks, vox
